icons4/nextcloud-blue.svg

<svg xmlns="http://www.w3.org/2000/svg" xml:space="preserve" viewBox="0 0 32 32"><path d="M5 0h22c2.8 0 5 2.2 5 5v22c0 2.8-2.2 5-5 5H5c-2.8 0-5-2.2-5-5V5c0-2.8 2.2-5 5-5" style="fill:#fff"/><path d="M16 10c-2.8 0-5 1.9-5.7 4.4-.6-1.4-2-2.4-3.5-2.4-2.1 0-3.9 1.8-3.9 3.9s1.8 3.9 3.9 3.9c1.5 0 2.9-1 3.5-2.3.8 2.5 3 4.4 5.7 4.4s5-1.9 5.7-4.3c.6 1.3 1.9 2.3 3.5 2.3 2.1 0 3.9-1.8 3.9-3.9s-1.8-3.9-3.9-3.9c-1.5 0-2.9.9-3.5 2.3C21 11.8 18.8 10 16 10m0 2.3c2 0 3.6 1.6 3.6 3.6S18 19.6 16 19.6 12.4 18 12.4 16c0-2.1 1.6-3.7 3.6-3.7m-9.2 2c.9 0 1.6.8 1.6 1.6s-.8 1.6-1.6 1.6-1.6-.6-1.6-1.5.8-1.7 1.6-1.7m18.4 0c.9 0 1.6.8 1.6 1.6s-.8 1.6-1.6 1.6c-.9 0-1.6-.6-1.6-1.5-.1-.9.7-1.7 1.6-1.7" style="fill:#0082c9"/></svg>

<?xml version="1.0" encoding="utf-8"?>
<!-- Generator: Adobe Illustrator 27.8.1, SVG Export Plug-In . SVG Version: 6.00 Build 0)  -->
<svg version="1.1" id="Layer_1" xmlns="http://www.w3.org/2000/svg" xmlns:xlink="http://www.w3.org/1999/xlink" x="0px" y="0px"
	 viewBox="0 0 32 32" style="enable-background:new 0 0 32 32;" xml:space="preserve">
<style type="text/css">
	.st0{fill:#FFFFFF;}
	.st1{fill:#0082C9;}
</style>
<path id="background" class="st0" d="M5,0h22c2.8,0,5,2.2,5,5v22c0,2.8-2.2,5-5,5H5c-2.8,0-5-2.2-5-5V5C0,2.2,2.2,0,5,0z"/>
<g id="logo">
	<path class="st1" d="M16,10c-2.8,0-5,1.9-5.7,4.4C9.7,13,8.3,12,6.8,12c-2.1,0-3.9,1.8-3.9,3.9s1.8,3.9,3.9,3.9
		c1.5,0,2.9-1,3.5-2.3c0.8,2.5,3,4.4,5.7,4.4s5-1.9,5.7-4.3c0.6,1.3,1.9,2.3,3.5,2.3c2.1,0,3.9-1.8,3.9-3.9s-1.8-3.9-3.9-3.9
		c-1.5,0-2.9,0.9-3.5,2.3C21,11.8,18.8,10,16,10L16,10z M16,12.3c2,0,3.6,1.6,3.6,3.6S18,19.6,16,19.6s-3.6-1.6-3.6-3.6l0,0
		C12.4,13.9,14,12.3,16,12.3z M6.8,14.3c0.9,0,1.6,0.8,1.6,1.6s-0.8,1.6-1.6,1.6s-1.6-0.6-1.6-1.5l0,0C5.2,15.1,6,14.3,6.8,14.3
		L6.8,14.3z M25.2,14.3c0.9,0,1.6,0.8,1.6,1.6s-0.8,1.6-1.6,1.6c-0.9,0-1.6-0.6-1.6-1.5l0,0C23.5,15.1,24.3,14.3,25.2,14.3
		L25.2,14.3z"/>
</g>
</svg>
